X: 5
T: Tulloch Gorum
R: strathspey
M: C
L: 1/8
Z: 2010 John Chambers <jc:trillian.mit.edu>
B: Manuscript tune book dated 1831, of William Thomas Green (1774-1860) p.__
F: http://www.asaplive.com/archive/browse_by_collection.asp
N: The asaplive.com web site is complex, and links to its files don't usually work.
K: G
c !Segno!|\
B>Gd>G c>=F FA | B>Gd>G TB>cd<g H| B>Gd>G c>=FA>c | B>Gd>(G {AB}c2)(Ac) |
B>Gd>G c>=F FA | B>Gd>G TB>cd<g H| B>Gd>G c>=FA>c | B>Gd>G {AB}c2 TB>A ||
G>gd>g =fF FA | G>gd>g B>gd>g | G>gd>g =f>F FA | G>gd>g A/B/c TB>A |
G>gd>g f>F FA | G>gd>g T=f>ga>f | (a/g/)(=f/e/ f)>d c>=FAa | g>dg>b g<ae<g !segno!:|
